icons/langchain-light.svg

<svg width="256" height="256" viewBox="0 0 256 256" fill="none" xmlns="http://www.w3.org/2000/svg">
<path d="M196 0H60C26.8629 0 0 26.8629 0 60V196C0 229.137 26.8629 256 60 256H196C229.137 256 256 229.137 256 196V60C256 26.8629 229.137 0 196 0Z" fill="#F4F2ED"/>
<path fill-rule="evenodd" clip-rule="evenodd" d="M220.907 118.04C227.342 111.596 227.342 101.11 220.907 94.6659L220.913 94.6793C217.802 91.5574 213.659 89.8431 209.243 89.8431C204.826 89.8431 200.682 91.5641 197.572 94.6793L185.021 107.247C181.631 110.635 179.892 115.345 180.252 120.168C180.26 120.254 180.268 120.339 180.276 120.424C180.293 120.603 180.309 120.781 180.332 120.961C180.785 124.664 182.41 128.006 185.021 130.62C186.833 132.435 188.825 133.576 191.243 134.376C191.37 135.103 191.436 135.844 191.436 136.584C191.436 139.913 190.151 143.034 187.806 145.382L187.033 146.156C182.843 144.722 179.346 142.621 176.188 139.459C171.992 135.263 169.22 129.967 168.174 124.143L168.028 123.329L153.612 137.525C147.177 143.968 147.177 154.454 153.612 160.898C156.83 164.12 161.053 165.728 165.283 165.728C169.513 165.728 173.737 164.12 176.954 160.898L189.505 148.331C195.94 141.887 195.94 131.401 189.505 124.957C187.786 123.236 185.741 121.949 183.429 121.115C183.296 120.354 183.229 119.594 183.229 118.86C183.229 115.245 184.662 111.809 187.266 109.188C191.463 110.629 195.187 112.957 198.338 116.105C202.521 120.294 205.292 125.591 206.345 131.428L206.491 132.241L220.907 118.04ZM115.285 164.018C117.418 166.01 120.166 168.578 119.239 169.703L119.233 169.697C119.518 170.316 120.496 171.025 121.502 171.754C123.171 172.963 124.916 174.228 123.689 175.227C121.031 175.774 118.047 175.88 116.015 173.753C115.414 175.14 114.163 174.824 112.988 174.526C112.706 174.455 112.428 174.385 112.165 174.34C112.038 174.693 111.932 175 111.812 175.347C107.328 175.647 103.964 171.064 101.819 167.596C99.7588 166.48 97.5636 165.576 95.3544 164.666C93.007 163.699 90.6439 162.726 88.4099 161.485C88.3605 162.259 88.3537 163.068 88.3468 163.889C88.3182 167.281 88.2879 170.871 85.2523 172.939C85.1523 177.031 88.4763 176.993 91.7449 176.956C94.5707 176.923 97.355 176.891 97.8492 179.529C97.6315 179.552 97.408 179.554 97.1845 179.555C96.5528 179.56 95.9214 179.565 95.4244 180.043C93.8361 181.592 92.1231 180.919 90.3486 180.221C88.7146 179.579 87.0283 178.917 85.3389 179.95C83.817 180.719 82.7357 181.443 81.7733 182.087C79.7493 183.442 78.2516 184.444 74.2875 184.779C73.9611 184.292 74.0943 183.959 74.3741 183.665C74.9198 183.033 75.2976 182.362 75.6605 181.717C76.3961 180.411 77.0702 179.214 78.9572 178.669C76.4201 178.272 74.2456 179.444 72.1072 180.597C71.8033 180.761 71.5 180.925 71.1966 181.084C69.8664 181.629 69.099 181.201 68.2957 180.752C67.1841 180.131 66.004 179.472 63.1695 181.304C62.6299 180.863 62.8897 180.463 63.1962 180.123C64.4352 178.609 66.0672 178.375 67.9058 178.469C63.1068 175.788 59.6555 177.685 56.8486 179.229C54.3604 180.596 52.3785 181.686 50.4128 179.062C49.5206 179.299 49.0231 179.937 48.5269 180.574C48.3228 180.836 48.119 181.097 47.8881 181.33C47.4089 180.799 47.526 180.191 47.646 179.568C47.6962 179.307 47.747 179.044 47.7548 178.782C47.6352 178.727 47.511 178.675 47.3869 178.624C46.661 178.323 45.938 178.024 46.1427 176.908C44.6237 176.396 43.552 177.217 42.4309 178.075C42.3672 178.124 42.3033 178.173 42.2391 178.222C41.505 177.651 42.1162 176.899 42.6817 176.203C42.9423 175.882 43.1932 175.574 43.2983 175.3C43.8182 174.393 44.6962 174.369 45.5685 174.345C46.3056 174.325 47.0388 174.306 47.5483 173.753C49.3702 172.715 51.6063 173.252 53.864 173.794C55.5108 174.19 57.1691 174.588 58.6863 174.38C61.4575 174.733 64.8948 171.878 63.4959 169.036C60.9583 165.795 60.9769 161.706 60.9948 157.756C60.9979 157.081 61.0009 156.41 60.9912 155.749C60.7797 154.251 58.6534 152.519 56.5179 150.78C54.8872 149.452 53.251 148.12 52.4578 146.883C50.2672 144.399 48.5341 141.518 46.827 138.681C46.7743 138.593 46.7216 138.506 46.669 138.418C43.7762 132.807 42.6098 126.471 41.4465 120.152C40.0489 112.56 38.6558 104.993 34.2786 98.735C30.6481 100.743 25.9185 99.789 22.7876 97.1007C21.1479 98.5875 21.0284 100.532 20.9013 102.599C20.8972 102.665 20.8932 102.731 20.8891 102.797C16.8389 98.735 17.3385 91.0638 20.5826 86.5412C21.9083 84.7601 23.487 83.2859 25.259 81.9985C25.652 81.7116 25.7919 81.4248 25.7786 80.9712C28.9828 66.5294 50.8458 69.3177 57.7604 79.5437C60.0446 82.4083 61.6036 85.6961 63.1608 88.9801C65.0232 92.9076 66.8829 96.8297 69.9775 100.016C72.973 103.297 76.1308 106.427 79.2882 109.556C84.1986 114.422 89.1083 119.287 93.406 124.724C100.087 132.888 104.864 142.461 109.02 152.106C109.7 153.384 110.109 154.779 110.517 156.169C111.13 158.256 111.739 160.331 113.251 161.972C113.615 162.457 114.397 163.187 115.285 164.018ZM229.74 85.8207C235.209 91.2973 238.22 98.5883 238.22 106.353H238.207C238.207 114.124 235.196 121.415 229.727 126.892L217.176 139.459C213.826 142.808 209.695 145.302 205.219 146.677L204.992 146.75L204.906 146.97C203.447 150.826 201.235 154.261 198.318 157.183L185.767 169.75C180.298 175.227 173.011 178.242 165.257 178.242C157.503 178.242 150.222 175.227 144.753 169.75C133.448 158.43 133.448 140.006 144.753 128.679L157.303 116.112C160.667 112.743 164.684 110.329 169.24 108.921L169.467 108.854L169.553 108.634C171.012 104.772 173.237 101.323 176.168 98.3881L188.718 85.8207C194.188 80.3442 201.469 77.3291 209.229 77.3291C216.99 77.3291 224.271 80.3442 229.74 85.8207ZM73.5922 160.314C73.5931 160.311 73.5939 160.308 73.5947 160.305H73.5881C73.5894 160.308 73.5908 160.311 73.5922 160.314ZM73.5922 160.314C73.411 161.024 73.2502 161.817 73.0821 162.646C72.2503 166.748 71.238 171.74 66.6868 171.911C66.2338 174.346 68.3721 175.26 70.3106 174.48C72.2358 173.592 73.1484 175.18 73.7946 176.761C76.7656 177.195 81.1622 175.767 81.3287 172.245C77.5574 170.068 76.0003 166.222 74.4316 162.348C74.1562 161.668 73.8804 160.987 73.5922 160.314Z" fill="#282828"/>
</svg>

<svg xmlns="http://www.w3.org/2000/svg" width="256" height="256" fill="none"><path fill="#F4F2ED" d="M196 0H60C26.863 0 0 26.863 0 60v136c0 33.137 26.863 60 60 60h136c33.137 0 60-26.863 60-60V60c0-33.137-26.863-60-60-60"/><path fill="#282828" fill-rule="evenodd" d="M220.907 118.04c6.435-6.444 6.435-16.93 0-23.374l.006.013c-3.111-3.122-7.254-4.836-11.67-4.836a16.38 16.38 0 0 0-11.671 4.836l-12.551 12.568c-3.39 3.388-5.129 8.098-4.769 12.921l.024.256q.024.268.056.537c.453 3.703 2.078 7.045 4.689 9.659 1.812 1.815 3.804 2.956 6.222 3.756.127.727.193 1.468.193 2.208 0 3.329-1.285 6.45-3.63 8.798l-.773.774c-4.19-1.434-7.687-3.535-10.845-6.697a28.76 28.76 0 0 1-8.014-15.316l-.146-.814-14.416 14.196c-6.435 6.443-6.435 16.929 0 23.373a16.43 16.43 0 0 0 11.671 4.83c4.23 0 8.454-1.608 11.671-4.83l12.551-12.567c6.435-6.444 6.435-16.93 0-23.374a16.35 16.35 0 0 0-6.076-3.842c-.133-.761-.2-1.521-.2-2.255 0-3.615 1.433-7.051 4.037-9.672a28.75 28.75 0 0 1 11.072 6.917 28.83 28.83 0 0 1 8.007 15.323l.146.813zm-105.622 45.978c2.133 1.992 4.881 4.56 3.954 5.685l-.006-.006c.285.619 1.263 1.328 2.269 2.057 1.669 1.209 3.414 2.474 2.187 3.473-2.658.547-5.642.653-7.674-1.474-.601 1.387-1.852 1.071-3.027.773-.282-.071-.56-.141-.823-.186-.127.353-.233.66-.353 1.007-4.484.3-7.848-4.283-9.993-7.751-2.06-1.116-4.255-2.02-6.465-2.93-2.347-.967-4.71-1.94-6.944-3.181-.05.774-.056 1.583-.063 2.404-.029 3.392-.06 6.982-3.095 9.05-.1 4.092 3.224 4.054 6.493 4.017 2.826-.033 5.61-.065 6.104 2.573a7 7 0 0 1-.665.026c-.631.005-1.263.01-1.76.488-1.588 1.549-3.3.876-5.075.178-1.634-.642-3.32-1.304-5.01-.271-1.522.769-2.603 1.493-3.566 2.137-2.024 1.355-3.521 2.357-7.486 2.692-.326-.487-.193-.82.087-1.114.546-.632.924-1.303 1.287-1.948.735-1.306 1.41-2.503 3.296-3.048-2.537-.397-4.711.775-6.85 1.928q-.456.247-.91.487c-1.33.545-2.098.117-2.901-.332-1.112-.621-2.292-1.28-5.127.552-.54-.441-.28-.841.027-1.181 1.24-1.514 2.871-1.748 4.71-1.654-4.8-2.681-8.25-.784-11.057.76-2.489 1.367-4.47 2.457-6.436-.167-.892.237-1.39.875-1.886 1.512a8 8 0 0 1-.639.756c-.48-.531-.362-1.139-.242-1.762.05-.261.101-.524.109-.786a10 10 0 0 0-.368-.158c-.726-.301-1.449-.6-1.244-1.716-1.52-.512-2.591.309-3.712 1.167l-.192.147c-.734-.571-.123-1.323.443-2.019.26-.321.511-.629.616-.903.52-.907 1.398-.931 2.27-.955.738-.02 1.47-.039 1.98-.592 1.822-1.038 4.058-.501 6.316.041 1.647.396 3.305.794 4.822.586 2.772.353 6.209-2.502 4.81-5.344-2.538-3.241-2.52-7.33-2.501-11.28.003-.675.006-1.346-.004-2.007-.211-1.498-2.338-3.23-4.473-4.969-1.63-1.328-3.267-2.66-4.06-3.897-2.19-2.484-3.924-5.365-5.631-8.202l-.158-.263c-2.893-5.611-4.06-11.947-5.222-18.266-1.398-7.592-2.791-15.159-7.168-21.417-3.63 2.008-8.36 1.054-11.491-1.634-1.64 1.487-1.76 3.431-1.887 5.498l-.012.198c-4.05-4.062-3.55-11.733-.306-16.256 1.325-1.78 2.904-3.255 4.676-4.542.393-.287.533-.574.52-1.028 3.204-14.442 25.067-11.653 31.981-1.427 2.285 2.864 3.844 6.152 5.4 9.436 1.863 3.928 3.723 7.85 6.818 11.036 2.995 3.281 6.153 6.411 9.31 9.54 4.91 4.866 9.82 9.731 14.118 15.168 6.681 8.164 11.458 17.737 15.614 27.382.68 1.278 1.089 2.673 1.497 4.063.613 2.087 1.222 4.162 2.734 5.803.364.485 1.146 1.215 2.034 2.046M229.74 85.821c5.469 5.476 8.48 12.767 8.48 20.532h-.013c0 7.771-3.011 15.062-8.48 20.539l-12.551 12.567a29.05 29.05 0 0 1-11.957 7.218l-.227.073-.086.22a28.8 28.8 0 0 1-6.588 10.213l-12.551 12.567c-5.469 5.477-12.756 8.492-20.51 8.492s-15.035-3.015-20.504-8.492c-11.305-11.32-11.305-29.744 0-41.071l12.55-12.567c3.364-3.369 7.381-5.783 11.937-7.191l.227-.067.086-.22a28.8 28.8 0 0 1 6.615-10.246l12.55-12.567c5.47-5.477 12.751-8.492 20.511-8.492 7.761 0 15.042 3.015 20.511 8.492M73.592 160.314l.003-.009h-.007zm0 0c-.181.71-.342 1.503-.51 2.332-.832 4.102-1.844 9.094-6.395 9.265-.453 2.435 1.685 3.349 3.624 2.569 1.925-.888 2.837.7 3.484 2.281 2.97.434 7.367-.994 7.534-4.516-3.772-2.177-5.329-6.023-6.897-9.897-.276-.68-.552-1.361-.84-2.034" clip-rule="evenodd"/></svg>
